epam-assets/icon-sources/18/none.svg

<svg width="18" height="18" viewBox="0 0 18 18" fill="none" xmlns="http://www.w3.org/2000/svg">
<g id="18/none">
<path id="icon" d="M7.05 12L9 10.05L10.95 12L12 10.95L10.05 9L12 7.05L10.95 6L9 7.95L7.05 6L6 7.05L7.95 9L6 10.95L7.05 12ZM2.25 15C1.8375 15 1.4845 14.8533 1.191 14.5597C0.897 14.2657 0.75 13.9125 0.75 13.5V4.5C0.75 4.0875 0.897 3.7345 1.191 3.441C1.4845 3.147 1.8375 3 2.25 3H15.75C16.1625 3 16.5157 3.147 16.8097 3.441C17.1033 3.7345 17.25 4.0875 17.25 4.5V13.5C17.25 13.9125 17.1033 14.2657 16.8097 14.5597C16.5157 14.8533 16.1625 15 15.75 15H2.25ZM2.25 13.5H15.75V4.5H2.25V13.5Z" fill="#6C6F80"/>
</g>
</svg>

<svg xmlns="http://www.w3.org/2000/svg" width="18" height="18" fill="none" viewBox="0 0 18 18">
  <path fill="#6C6F80" d="M7.05 12 9 10.05 10.95 12 12 10.95 10.05 9 12 7.05 10.95 6 9 7.95 7.05 6 6 7.05 7.95 9 6 10.95 7.05 12Zm-4.8 3c-.413 0-.766-.147-1.059-.44A1.445 1.445 0 0 1 .75 13.5v-9c0-.412.147-.765.441-1.059A1.443 1.443 0 0 1 2.25 3h13.5c.413 0 .766.147 1.06.441.293.294.44.647.44 1.059v9c0 .412-.147.766-.44 1.06-.294.293-.647.44-1.06.44H2.25Zm0-1.5h13.5v-9H2.25v9Z"/>
</svg>
